X:5040
T:The Bishop In Flight
M:6/8
L:1/8
Q:180
C:Aidan Crossey
R:Jig
K:D
|:F2G|ABc d2e|fed B2A|FAF GBG|E3 F2G|
ABc d2e|fed B2A|FAF GFE|D3:||
|:F2G|AFD BGE|cde d2e|fdB Bcd|ecA ABc|
afd bge|cde d2A|BAG FGE|D3:||
